learning-site/svg (16).svg

<svg xmlns="http://www.w3.org/2000/svg" xmlns:xlink="http://www.w3.org/1999/xlink" viewBox="0 0 100 100" version="1.1"><!-- Generator: Sketch 51.3 (57544) - http://www.bohemiancoding.com/sketch --><title>design-for-efficiency-and-operations</title><desc>Created with Sketch.</desc><defs><filter x="-1.6%" y="-1.6%" width="103.1%" height="106.2%" filterUnits="objectBoundingBox" id="filter-1"><feOffset dx="0" dy="2" in="SourceAlpha" result="shadowOffsetOuter1"></feOffset><feColorMatrix values="0 0 0 0 0   0 0 0 0 0   0 0 0 0 0  0 0 0 0.102072011 0" type="matrix" in="shadowOffsetOuter1" result="shadowMatrixOuter1"></feColorMatrix><feMerge><feMergeNode in="shadowMatrixOuter1"></feMergeNode><feMergeNode in="SourceGraphic"></feMergeNode></feMerge></filter></defs><g id="Badges-FINAL" stroke="none" stroke-width="1" fill="none" fill-rule="evenodd"><g id="Architect-Great-Solutions-with-Azure" transform="translate(-577.000000, -900.000000)"><g id="design-for-efficiency-and-operations" transform="translate(577.000000, 900.000000)"><rect id="BG" fill="#F2C811" x="2" y="2" width="96" height="96" rx="48"></rect><path d="M20.8522633,49.0899146 L11.9484971,49.0899146 C8.94820984,49.0899146 6.50730664,46.6490114 6.50730664,43.6487241 C6.50730664,40.6484369 8.94820984,38.2075337 11.9484971,38.2075337 C12.2238411,38.2075337 12.5006345,38.2324098 12.7977185,38.2848233 C13.8498222,34.7205616 17.0955022,32.2716895 20.8522633,32.2716895 C25.4891568,32.2716895 29.2613759,36.0439086 29.2613759,40.6808021 C29.2613759,45.3176955 25.4891568,49.0899146 20.8522633,49.0899146 Z" id="Cloud" fill="#FFFFFF" fill-rule="nonzero"></path><path d="M82.5595526,32.1031324 L65.6641209,32.1031324 C62.6697677,32.1031324 60.2334464,29.6668112 60.2334464,26.6724579 C60.2334464,24.3424995 61.7231106,22.295099 63.9069296,21.5499682 C64.3627262,16.6063227 68.4999648,12.7940676 73.5084285,12.7940676 C78.3896152,12.7940676 82.4932622,16.4734461 83.0804629,21.2665353 C85.8314495,21.5296394 87.9902271,23.8537026 87.9902271,26.6724579 C87.9902271,29.6668112 85.5539058,32.1031324 82.5595526,32.1031324 Z" id="Cloud" fill="#FFFFFF" fill-rule="nonzero" opacity="0.900000036"></path><g id="Meter" filter="url(#filter-1)" transform="translate(18.000000, 18.000000)"><path d="M32,4 C16.56,4 4,16.56 4,32 C4,47.439 16.56,60 32,60 C47.439,60 60,47.439 60,32 C60,16.56 47.439,4 32,4" id="Fill-309" fill="#E1E4E1"></path><path d="M59.821,28.799 C58.389,15.954 48.046,5.612 35.201,4.179 C18.335,2.298 4,15.506 4,32 C4,32.335 4.014,32.667 4.025,33 C4.515,19.155 15.098,7.834 28.626,6.202 C30.417,5.986 32,7.383 32,9.187 L32,36.985 C29.437,36.984 27.305,35.037 27.047,32.5 C27.024,32.725 26.995,32.948 27.003,33.18 C27.083,35.367 28.564,37.168 30.548,37.77 C31.402,38.029 32,38.794 32,39.686 L32,60 C48.494,60 61.702,45.665 59.821,28.799" id="Fill-310" fill="#C5CCCD"></path><path d="M32,64 C37.98,64 43.581,62.347 48.374,59.479 L42.018,48.722 C41.458,47.775 40.1,47 39,47 L24,47 C22.9,47 21.569,47.79 21.042,48.756 L15.3,59.284 C20.165,62.272 25.884,64 32,64" id="Fill-311" fill="#546670"></path><path d="M56,32 C56,38.62 53.31,44.62 48.96,48.96 L42.6,42.6 C45.32,39.88 47,36.141 47,32 C47,27.859 45.32,24.12 42.6,21.4 L48.96,15.04 C53.31,19.38 56,25.38 56,32" id="Fill-312" fill="#DF5142"></path><path d="M48.96,15.04 L42.6,21.4 C39.88,18.68 36.14,17 32,17 C27.86,17 24.12,18.68 21.4,21.4 L15.04,15.04 C19.38,10.689 25.38,8 32,8 C38.62,8 44.62,10.689 48.96,15.04" id="Fill-313" fill="#F7CB64"></path><path d="M17,32 C17,36.141 18.68,39.88 21.4,42.6 L15.04,48.96 C10.69,44.62 8,38.62 8,32 C8,25.38 10.69,19.38 15.04,15.04 L21.4,21.4 C18.68,24.12 17,27.859 17,32" id="Fill-314" fill="#7CB65A"></path><path d="M39,47 L32,47 L32,64 C37.98,64 43.581,62.347 48.374,59.479 L42.018,48.722 C41.458,47.775 40.1,47 39,47" id="Fill-317" fill="#30404D"></path><path d="M32,60 C16.56,60 4,47.44 4,32 C4,16.56 16.56,4 32,4 C47.44,4 60,16.56 60,32 C60,47.44 47.44,60 32,60 Z M32,0 C14.355,0 0,14.355 0,32 C0,49.644 14.355,64 32,64 C49.645,64 64,49.644 64,32 C64,14.355 49.645,0 32,0 Z" id="Fill-318" fill="#546670"></path><path d="M42.6,21.4 L48.96,15.04 C44.62,10.69 38.62,8 32,8 L32,17 C36.14,17 39.88,18.68 42.6,21.4" id="Fill-321" fill="#EFB252"></path><path d="M39,55 C39,56.1 38.1,57 37,57 L26,57 C24.9,57 24,56.1 24,55 L24,52 C24,50.9 24.9,50 26,50 L37,50 C38.1,50 39,50.9 39,52 L39,55" id="Fill-322" fill="#30404D"></path><path d="M37,50 L26,50 C24.9,50 24,50.9 24,52 L24,53 C24,51.9 24.9,51 26,51 L37,51 C38.1,51 39,51.9 39,53 L39,52 C39,50.9 38.1,50 37,50" id="Fill-323" fill="#182A37"></path></g><g id="Pin" transform="translate(31.000000, 44.000000)"><path d="M18.1922708,0.995951255 C20.9151755,0.561169794 23.4839707,2.42219543 23.9185798,5.14369648 C24.3541493,7.86721685 22.4931236,10.436012 19.7702189,10.8707935 C17.0473142,11.3055749 14.478519,9.44454929 14.0437376,6.72164458 C13.6091285,4.00014354 15.4707698,1.43056037 18.1922708,0.995951255 Z" id="Fill-315" fill="#546670"></path><path d="M14.0437376,6.72164458 C14.1048256,7.1031236 14.2159537,7.46278531 14.3557958,7.8068103 C9.50757395,5.60016091 0.738307985,1.49120783 0.932253028,0.715081985 C1.11777514,-0.0194018788 10.2397713,1.16593933 15.9567716,1.98285308 C14.5479571,3.06487788 13.7446253,4.84838089 14.0437376,6.72164458 Z" id="Fill-316" fill="#182A37"></path></g><path d="M75.7166586,82 L66.8128924,82 C63.8126051,82 61.3717019,79.5590968 61.3717019,76.5588095 C61.3717019,73.5585223 63.8126051,71.1176191 66.8128924,71.1176191 C67.0882364,71.1176191 67.3650298,71.1424952 67.6621138,71.1949087 C68.7142175,67.630647 71.9598975,65.1817749 75.7166586,65.1817749 C80.3535521,65.1817749 84.1257712,68.953994 84.1257712,73.5908875 C84.1257712,78.2277809 80.3535521,82 75.7166586,82 Z" id="Cloud" fill="#FFFFFF" fill-rule="nonzero"></path><g id="Azure-Border" stroke="#0078D4" stroke-width="4"><rect x="2" y="2" width="96" height="96" rx="48"></rect></g></g></g></g></svg>

<svg xmlns="http://www.w3.org/2000/svg" viewBox="0 0 100 100"><defs><filter x="-1.6%" y="-1.6%" width="103.1%" height="106.2%" filterUnits="objectBoundingBox" id="a"><feOffset dy="2" in="SourceAlpha" result="shadowOffsetOuter1"/><feColorMatrix values="0 0 0 0 0 0 0 0 0 0 0 0 0 0 0 0 0 0 0.102072011 0" in="shadowOffsetOuter1" result="shadowMatrixOuter1"/><feMerge><feMergeNode in="shadowMatrixOuter1"/><feMergeNode in="SourceGraphic"/></feMerge></filter></defs><g fill="none" fill-rule="evenodd"><rect fill="#F2C811" x="2" y="2" width="96" height="96" rx="48"/><path d="M20.852 49.09h-8.904c-3 0-5.44-2.441-5.44-5.441s2.44-5.441 5.44-5.441c.276 0 .553.024.85.077a8.366 8.366 0 0 1 8.054-6.013c4.637 0 8.41 3.772 8.41 8.409 0 4.637-3.773 8.409-8.41 8.409z" fill="#FFF" fill-rule="nonzero"/><path d="M82.56 32.103H65.664a5.437 5.437 0 0 1-5.43-5.43c0-2.33 1.49-4.378 3.673-5.123a9.635 9.635 0 0 1 9.601-8.756c4.882 0 8.985 3.68 9.572 8.473a5.438 5.438 0 0 1 4.91 5.405 5.437 5.437 0 0 1-5.43 5.431z" fill="#FFF" fill-rule="nonzero" opacity=".9"/><g filter="url(#a)" transform="translate(18 18)"><path d="M32 4C16.56 4 4 16.56 4 32c0 15.439 12.56 28 28 28 15.439 0 28-12.561 28-28C60 16.56 47.439 4 32 4" fill="#E1E4E1"/><path d="M59.821 28.799c-1.432-12.845-11.775-23.187-24.62-24.62C18.335 2.298 4 15.506 4 32c0 .335.014.667.025 1 .49-13.845 11.073-25.166 24.601-26.798A3.012 3.012 0 0 1 32 9.187v27.798a4.985 4.985 0 0 1-4.953-4.485c-.023.225-.052.448-.044.68a4.992 4.992 0 0 0 3.545 4.59c.854.259 1.452 1.024 1.452 1.916V60c16.494 0 29.702-14.335 27.821-31.201" fill="#C5CCCD"/><path d="M32 64c5.98 0 11.581-1.653 16.374-4.521l-6.356-10.757C41.458 47.775 40.1 47 39 47H24c-1.1 0-2.431.79-2.958 1.756L15.3 59.284A31.81 31.81 0 0 0 32 64" fill="#546670"/><path d="M56 32c0 6.62-2.69 12.62-7.04 16.96L42.6 42.6C45.32 39.88 47 36.141 47 32s-1.68-7.88-4.4-10.6l6.36-6.36A23.888 23.888 0 0 1 56 32" fill="#DF5142"/><path d="M48.96 15.04L42.6 21.4C39.88 18.68 36.14 17 32 17s-7.88 1.68-10.6 4.4l-6.36-6.36A23.884 23.884 0 0 1 32 8c6.62 0 12.62 2.689 16.96 7.04" fill="#F7CB64"/><path d="M17 32c0 4.141 1.68 7.88 4.4 10.6l-6.36 6.36A23.888 23.888 0 0 1 8 32c0-6.62 2.69-12.62 7.04-16.96l6.36 6.36A14.932 14.932 0 0 0 17 32" fill="#7CB65A"/><path d="M39 47h-7v17c5.98 0 11.581-1.653 16.374-4.521l-6.356-10.757C41.458 47.775 40.1 47 39 47" fill="#30404D"/><path d="M32 60C16.56 60 4 47.44 4 32S16.56 4 32 4s28 12.56 28 28-12.56 28-28 28zm0-60C14.355 0 0 14.355 0 32c0 17.644 14.355 32 32 32s32-14.356 32-32C64 14.355 49.645 0 32 0z" fill="#546670"/><path d="M42.6 21.4l6.36-6.36A23.888 23.888 0 0 0 32 8v9c4.14 0 7.88 1.68 10.6 4.4" fill="#EFB252"/><path d="M39 55c0 1.1-.9 2-2 2H26c-1.1 0-2-.9-2-2v-3c0-1.1.9-2 2-2h11c1.1 0 2 .9 2 2v3" fill="#30404D"/><path d="M37 50H26c-1.1 0-2 .9-2 2v1c0-1.1.9-2 2-2h11c1.1 0 2 .9 2 2v-1c0-1.1-.9-2-2-2" fill="#182A37"/></g><path d="M49.192 44.996a5.006 5.006 0 0 1 5.727 4.148 5.005 5.005 0 0 1-4.149 5.727 5.006 5.006 0 0 1-5.726-4.15 5.006 5.006 0 0 1 4.148-5.725z" fill="#546670"/><path d="M45.044 50.722c.06.381.172.74.312 1.085-4.848-2.207-13.618-6.316-13.424-7.092.186-.734 9.308.45 15.025 1.268-1.409 1.082-2.212 2.865-1.913 4.739z" fill="#182A37"/><path d="M75.717 82h-8.904c-3 0-5.441-2.44-5.441-5.441 0-3 2.44-5.441 5.44-5.441.276 0 .553.024.85.077a8.366 8.366 0 0 1 8.055-6.013c4.637 0 8.409 3.772 8.409 8.409 0 4.637-3.772 8.409-8.41 8.409z" fill="#FFF" fill-rule="nonzero"/><g stroke="#0078D4" stroke-width="4"><rect x="2" y="2" width="96" height="96" rx="48"/></g></g></svg>
